icon-themes/sifr_svg/cmd/sc_dbaddrelation.svg

<svg viewBox="0 0 16 16" xmlns="http://www.w3.org/2000/svg"><path d="m0 0v8h1v6h2 2v2h10v-7h-1v-4-2h-4v-3zm2 2h6v4h-6zm8 3h2v4h-2-5v3h-2v-4h7zm-3 6h6v3h-6z" fill="#555753"/></svg>

<svg xmlns="http://www.w3.org/2000/svg" viewBox="0 0 16 16">
  <path
     style="fill:#555753"
     d="M 0 0 L 0 8 L 1 8 L 1 14 L 3 14 L 5 14 L 5 16 L 15 16 L 15 9 L 14 9 L 14 5 L 14 3 L 10 3 L 10 0 L 0 0 z M 2 2 L 8 2 L 8 6 L 2 6 L 2 2 z M 10 5 L 12 5 L 12 9 L 10 9 L 5 9 L 5 12 L 3 12 L 3 8 L 10 8 L 10 5 z M 7 11 L 13 11 L 13 14 L 7 14 L 7 11 z "
     />
</svg>
